src/styles/icons/size(28*28)(30*30)/addphoto_30dp.svg

<svg width="30" height="30" fill="current" xmlns="http://www.w3.org/2000/svg"><path d="M26.25 18.75v3.75H30V25h-3.75v3.75h-2.5V25H20v-2.5h3.75v-3.75h2.5Zm.01-15c.685 0 1.24.55625 1.24 1.24125V16.25H25v-10H5v17.4988L17.5 11.25 21.25 15v3.5363l-3.75-3.75L8.53375 23.75H17.5v2.5H3.74c-.32898-.0003-.64438-.1313-.87689-.364S2.5 25.3377 2.5 25.0087V4.99125c.00229-.32828.13363-.64248.36564-.87473.23202-.23225.54609-.3639.87436-.36652h22.52ZM10 8.75c.663 0 1.2989.26339 1.7678.73223.4688.46884.7322 1.10477.7322 1.76777s-.2634 1.2989-.7322 1.7678c-.4689.4688-1.1048.7322-1.7678.7322-.66304 0-1.29893-.2634-1.76777-.7322C7.76339 12.5489 7.5 11.913 7.5 11.25s.26339-1.29893.73223-1.76777C8.70107 9.01339 9.33696 8.75 10 8.75Z"/></svg>

<svg width="30" height="30" viewBox="0 0 30 30" fill="current" xmlns="http://www.w3.org/2000/svg">
<path d="M26.25 18.75V22.5H30V25H26.25V28.75H23.75V25H20V22.5H23.75V18.75H26.25ZM26.26 3.75C26.945 3.75 27.5 4.30625 27.5 4.99125V16.25H25V6.25H5V23.7488L17.5 11.25L21.25 15V18.5363L17.5 14.7863L8.53375 23.75H17.5V26.25H3.74C3.41102 26.2497 3.09562 26.1187 2.86311 25.886C2.6306 25.6533 2.5 25.3377 2.5 25.0087V4.99125C2.50229 4.66297 2.63363 4.34877 2.86564 4.11652C3.09766 3.88427 3.41173 3.75262 3.74 3.75H26.26ZM10 8.75C10.663 8.75 11.2989 9.01339 11.7678 9.48223C12.2366 9.95107 12.5 10.587 12.5 11.25C12.5 11.913 12.2366 12.5489 11.7678 13.0178C11.2989 13.4866 10.663 13.75 10 13.75C9.33696 13.75 8.70107 13.4866 8.23223 13.0178C7.76339 12.5489 7.5 11.913 7.5 11.25C7.5 10.587 7.76339 9.95107 8.23223 9.48223C8.70107 9.01339 9.33696 8.75 10 8.75V8.75Z" fill="current"/>
</svg>
